public/icons/icon/pack.svg

<svg width="30" height="30" viewBox="0 0 30 30" fill="none" xmlns="http://www.w3.org/2000/svg">
<path d="M1 2C1 1.44772 1.44772 1 2 1H12C12.5523 1 13 1.44772 13 2V12C13 12.5523 12.5523 13 12 13H2C1.44772 13 1 12.5523 1 12V2ZM1 18C1 17.4477 1.44772 17 2 17H12C12.5523 17 13 17.4477 13 18V28C13 28.5523 12.5523 29 12 29H2C1.44772 29 1 28.5523 1 28V18ZM17 2C17 1.44772 17.4477 1 18 1H28C28.5523 1 29 1.44772 29 2V12C29 12.5523 28.5523 13 28 13H18C17.4477 13 17 12.5523 17 12V2ZM17 18C17 17.4477 17.4477 17 18 17H28C28.5523 17 29 17.4477 29 18V28C29 28.5523 28.5523 29 28 29H18C17.4477 29 17 28.5523 17 28V18Z" stroke="black" stroke-width="2"/>
</svg>

<svg xmlns="http://www.w3.org/2000/svg" width="30" height="30" fill="none"><path stroke="#000" stroke-width="2" d="M1 2a1 1 0 0 1 1-1h10a1 1 0 0 1 1 1v10a1 1 0 0 1-1 1H2a1 1 0 0 1-1-1V2Zm0 16a1 1 0 0 1 1-1h10a1 1 0 0 1 1 1v10a1 1 0 0 1-1 1H2a1 1 0 0 1-1-1V18ZM17 2a1 1 0 0 1 1-1h10a1 1 0 0 1 1 1v10a1 1 0 0 1-1 1H18a1 1 0 0 1-1-1V2Zm0 16a1 1 0 0 1 1-1h10a1 1 0 0 1 1 1v10a1 1 0 0 1-1 1H18a1 1 0 0 1-1-1V18Z"/></svg>
